build/img/content/advantages/warranty.svg

<svg width="120" height="120" viewBox="0 0 120 120" fill="none" xmlns="http://www.w3.org/2000/svg">
<path d="M113.135 25.8576C102.088 22.5323 100.707 10.4625 100.639 5.26312C100.622 3.93608 99.5142 2.85327 98.1872 2.85327H21.8128C20.4858 2.85327 19.3781 3.93608 19.3608 5.26312C19.2928 10.4625 17.9123 22.5323 6.86529 25.8576C5.79608 26.1792 5.07608 27.1809 5.12342 28.2966C5.53826 38.1173 9.93607 82.1489 54.862 115.436C57.9206 117.703 62.0794 117.703 65.1384 115.436C110.064 82.1489 114.462 38.1169 114.877 28.2966C114.924 27.1809 114.204 26.1797 113.135 25.8576Z" fill="#5FCDFF"/>
<path d="M63.5156 116.385C60.7172 117.637 57.4078 117.323 54.8625 115.439C9.9375 82.148 5.53593 38.1183 5.12343 28.298C5.07656 27.1824 5.79843 26.1792 6.86718 25.8558C17.9109 22.5324 19.2937 10.4621 19.3594 5.26362C19.3781 3.93706 20.4844 2.85425 21.8109 2.85425H28.8422C27.5156 2.85425 26.4094 3.93706 26.3906 5.26362C26.325 10.4621 24.9422 22.5324 13.8984 25.8558C12.8297 26.1792 12.1078 27.1824 12.1547 28.298C12.5672 38.1183 16.9687 82.148 61.8937 115.439C62.4047 115.818 62.9484 116.137 63.5156 116.385Z" fill="#73D7F9"/>
<path d="M114.877 28.298C114.464 38.1183 110.062 82.148 65.1375 115.439C62.5922 117.323 59.2828 117.637 56.4844 116.385C57.0516 116.137 57.5953 115.818 58.1062 115.439C103.031 82.148 107.433 38.1183 107.845 28.298C107.892 27.1824 107.17 26.1792 106.102 25.8558C95.0578 22.5324 93.675 10.4621 93.6094 5.26362C93.5906 3.93706 92.4844 2.85425 91.1578 2.85425H98.1891C99.5156 2.85425 100.622 3.93706 100.641 5.26362C100.706 10.4621 102.089 22.5324 113.133 25.8558C114.202 26.1792 114.923 27.1824 114.877 28.298Z" fill="#30B6FF"/>
<path d="M57.0572 58.2722C56.9611 58.2722 56.865 58.2689 56.7684 58.2618C55.6538 58.1822 54.6216 57.6454 53.9166 56.7783L46.3828 47.5125C44.9728 45.7781 45.2358 43.2295 46.9702 41.8195C48.7055 40.409 51.2536 40.6729 52.6636 42.4064L57.4781 48.3281L70.5441 36.2629C72.1861 34.7465 74.7464 34.8487 76.2628 36.4908C77.7792 38.1328 77.677 40.6931 76.035 42.2095L59.8027 57.1987C59.0522 57.8911 58.0711 58.2722 57.0572 58.2722Z" fill="#FFEFEE"/>
<path d="M86.7202 15.5147H90.2391C91.2745 15.5147 92.1141 14.6752 92.1141 13.6397C92.1141 12.6042 91.2745 11.7647 90.2391 11.7647H86.7202C85.6847 11.7647 84.8452 12.6042 84.8452 13.6397C84.8452 14.6752 85.6847 15.5147 86.7202 15.5147Z" fill="#1D1D1B"/>
<path d="M62.3451 15.5147H79.6889C80.7243 15.5147 81.5639 14.6752 81.5639 13.6397C81.5639 12.6042 80.7243 11.7647 79.6889 11.7647H62.3451C61.3097 11.7647 60.4701 12.6042 60.4701 13.6397C60.4701 14.6752 61.3097 15.5147 62.3451 15.5147Z" fill="#1D1D1B"/>
<path d="M73.5253 33.3193C71.9367 33.2527 70.4339 33.8124 69.2718 34.8858L57.6736 45.5963L54.1186 41.2234C52.0579 38.6907 48.3215 38.3049 45.7879 40.3646C43.2543 42.4243 42.8686 46.1616 44.9287 48.6957L52.4625 57.9615C54.5906 60.5804 58.5347 60.9216 61.0753 58.5765L77.3076 43.5873C81.1453 40.0435 78.8179 33.5298 73.5253 33.3193ZM58.5309 55.8212C57.6122 56.6691 56.1632 56.5702 55.3715 55.5957C47.2293 45.5818 47.2368 45.9526 47.3625 44.7366C47.5617 42.8063 49.9982 42.1018 51.2086 43.5891L56.0231 49.5109C56.7051 50.3499 57.9562 50.439 58.7498 49.7054L71.8158 37.6407C73.244 36.3207 75.5367 37.4105 75.4594 39.323C75.4106 40.5666 76.102 39.5954 58.5309 55.8212V55.8212Z" fill="#1D1D1B"/>
<path d="M113.676 24.0624C103.785 21.0853 102.575 9.90657 102.514 5.23876C102.483 2.88985 100.542 0.97876 98.1872 0.97876H21.8128C19.4578 0.97876 17.5167 2.88985 17.4858 5.23876C17.4248 9.90657 16.2145 21.0858 6.32436 24.0624C4.43108 24.6324 3.16686 26.4061 3.24983 28.3758C3.46545 33.4842 4.70764 47.1609 11.5673 63.7819C20.2101 84.7242 34.4015 102.61 53.745 116.943C55.6158 118.329 57.8076 119.022 60 119.022C62.1919 119.022 64.3837 118.328 66.254 116.943C85.5984 102.61 99.7889 84.7242 108.432 63.7819C115.291 47.1609 116.534 33.4847 116.749 28.3758C116.833 26.4061 115.569 24.6324 113.676 24.0624V24.0624ZM64.0223 113.93C61.6158 115.712 58.3837 115.712 55.9781 113.93C11.4089 80.9067 7.35608 36.7364 6.99654 28.2174C6.98623 27.9609 7.15404 27.7289 7.40576 27.653C19.6715 23.9611 21.1636 10.7822 21.2358 5.28751C21.2395 4.98985 21.5095 4.72829 21.8128 4.72829H98.1872C98.4905 4.72829 98.7609 4.98985 98.7642 5.28751C98.8364 10.7822 100.328 23.9611 112.594 27.653C112.846 27.7289 113.014 27.9609 113.003 28.2174C112.644 36.7364 108.591 80.9067 64.0223 113.93V113.93Z" fill="#1D1D1B"/>
<path d="M43.3931 78.5958C47.6147 76.0139 47.5045 70.1817 47.4965 69.9127C47.4267 67.4564 43.6973 67.5352 43.7479 70.013C43.7489 70.0556 43.799 74.0377 41.3133 75.466C40.1686 73.6735 39.09 71.8646 38.0742 70.0556C41.9897 67.74 42.4753 62.4591 42.4964 62.2041C42.7003 59.7417 38.9831 59.4305 38.7595 61.8877C38.7558 61.9271 38.4192 65.3302 36.2808 66.7411C35.1801 64.6299 34.1634 62.5331 33.2273 60.4777C37.2417 57.961 37.875 52.4841 37.9026 52.2258C38.0119 51.196 37.2661 50.2725 36.2362 50.1633C35.2111 50.056 34.2829 50.7994 34.1737 51.8297C34.1695 51.8696 33.7462 55.2638 31.6879 56.9705C30.8817 55.0646 30.1444 53.2097 29.4754 51.4308C33.2522 48.3558 34.289 42.9736 34.3345 42.7289C34.5225 41.7108 33.8498 40.7325 32.8317 40.5441C31.815 40.3542 30.8353 41.0278 30.6469 42.0469C30.6398 42.0863 29.9948 45.2981 28.0804 47.565C27.1912 44.993 26.4572 42.6478 25.8623 40.6139C29.969 37.7011 31.3139 32.5955 31.3711 32.3719C31.627 31.3688 31.0214 30.3478 30.0178 30.0914C29.0137 29.8345 27.9937 30.4411 27.7373 31.4442C27.7284 31.4799 26.9044 34.477 24.7626 36.6366C24.1162 34.1452 23.8181 32.6724 23.805 32.6072C23.6044 31.5919 22.62 30.9286 21.6028 31.1306C20.587 31.3308 19.9256 32.3161 20.1258 33.3319C20.1778 33.5953 20.4858 35.1197 21.1101 37.5685C18.4847 36.7585 16.5511 34.6247 16.5234 34.5942C15.8386 33.8213 14.6569 33.7472 13.8811 34.4302C13.1039 35.1141 13.0284 36.2991 13.7123 37.0767C13.8698 37.2553 17.3648 41.1563 22.2037 41.5842C22.8351 43.7714 23.6245 46.3083 24.5915 49.0974C21.9558 48.7317 19.5342 45.9136 18.7753 44.7614C18.2086 43.8966 17.0484 43.6538 16.1831 44.2181C15.3154 44.7839 15.0708 45.9455 15.6365 46.8131C18.81 51.6881 23.9315 53.4605 25.9237 52.7827C26.602 54.5869 27.3478 56.4656 28.1662 58.3992C25.5956 58.695 22.8614 56.2899 21.974 55.2699C21.2981 54.4885 20.1178 54.4003 19.3326 55.0753C18.5479 55.7508 18.4594 56.9344 19.1344 57.7196C21.5869 60.57 26.0329 63.0502 29.7051 61.9017C30.6478 63.9713 31.6701 66.0835 32.7797 68.2153C29.7164 68.6264 26.5195 66.3333 26.4844 66.3071C25.6528 65.6949 24.4819 65.8702 23.8659 66.7013C23.25 67.5333 23.4248 68.7075 24.2569 69.3239C26.4159 70.9228 30.7134 72.8171 34.6308 71.641C35.6465 73.4527 36.7251 75.2682 37.8703 77.0724C35.6808 77.3892 33.1959 76.8141 32.145 76.4499C31.1704 76.1105 30.1012 76.6233 29.7581 77.5992C29.4154 78.5761 29.9287 79.6463 30.9061 79.9894C33.2536 80.8149 37.0373 81.3553 40.0692 80.4C41.6175 82.6496 43.2726 84.8663 45.0426 87.0192C45.4134 87.4702 45.9506 87.7036 46.492 87.7036C48.0581 87.7036 48.9501 85.8671 47.9395 84.638C46.3298 82.6763 44.8167 80.6541 43.3931 78.5958V78.5958Z" fill="#1D1D1B"/>
<path d="M103.41 35.2842C103.387 35.3128 101.571 37.5464 98.9939 38.5008C99.4828 36.0249 99.7064 34.4874 99.7439 34.2216C99.8883 33.1964 99.1734 32.2486 98.1487 32.1042C97.1208 31.957 96.1748 32.6738 96.0304 33.6994C96.0211 33.765 95.804 35.2528 95.2945 37.7766C93.0258 35.7324 92.0494 32.783 92.0376 32.7478C91.725 31.7634 90.6745 31.2169 89.6883 31.5272C88.7006 31.838 88.1517 32.8908 88.4625 33.8784C88.5319 34.0988 90.1547 39.1228 94.4147 41.8069C93.9323 43.8708 93.3272 46.2539 92.5795 48.8714C90.5315 46.7081 89.7248 43.5342 89.715 43.4953C89.4694 42.4913 88.4587 41.8753 87.4523 42.1186C86.4459 42.3624 85.8276 43.3758 86.0714 44.3822C86.13 44.6241 87.4598 49.9416 91.3997 52.8052C90.8287 54.6183 90.194 56.5116 89.4933 58.4592C87.3417 56.8725 86.7408 53.5195 86.7295 53.4553C86.5612 52.4358 85.5989 51.7458 84.5798 51.9099C83.5575 52.0758 82.8633 53.0386 83.0287 54.0605C83.07 54.3169 84.0019 59.7506 88.1484 62.0438C87.3262 64.1475 86.4258 66.2963 85.4428 68.4647C83.2429 67.1803 82.7133 63.8325 82.702 63.7561C82.5572 62.7338 81.614 62.0213 80.5889 62.1614C79.5633 62.303 78.8461 63.2494 78.9876 64.2755C79.0228 64.5291 79.7972 69.7753 83.8336 71.873C82.9186 73.7348 81.9403 75.6 80.8959 77.4525C78.345 76.1672 78.1687 72.2114 78.1664 72.1416C78.0923 69.653 74.3536 69.7819 74.4178 72.2466C74.4248 72.5152 74.6348 78.3445 78.9909 80.6916C77.6822 82.8244 76.2815 84.9267 74.7806 86.9714C74.1675 87.8063 74.348 88.9795 75.1823 89.5927C76.02 90.2067 77.1914 90.0234 77.8036 89.1909C79.4512 86.9461 80.9817 84.6445 82.4034 82.3158C85.3664 83.0752 89.122 82.3955 91.5342 81.3975C92.4895 81.0019 92.9428 79.9083 92.549 78.952C92.1553 77.9963 91.0608 77.5392 90.1031 77.9311C89.0737 78.3525 86.624 79.0622 84.4209 78.8658C85.4648 77.003 86.4417 75.1322 87.3567 73.2689C90.8794 74.1202 94.9964 72.5377 97.5895 70.3838C98.3869 69.7228 98.4975 68.5406 97.8361 67.7438C97.1747 66.9469 95.9925 66.8358 95.1961 67.4972C95.1619 67.5253 92.0869 69.9802 89.0194 69.743C90.0103 67.5539 90.9154 65.3888 91.7433 63.2709C95.4529 64.2169 99.7758 61.5033 102.068 58.5164C102.7 57.6956 102.547 56.5186 101.726 55.8872C100.905 55.2558 99.7275 55.4091 99.097 56.2299C99.0665 56.2688 96.1833 59.8884 93.0886 59.6888C93.7997 57.7139 94.4414 55.7977 95.0198 53.9597C97.0598 54.5297 102.054 52.4827 104.965 47.4347C106.197 45.2949 102.965 43.4189 101.718 45.5583C101.023 46.7513 98.7642 49.7049 96.1476 50.2083C96.9604 47.3714 97.6101 44.7952 98.1206 42.5766C102.929 41.8852 106.205 37.7958 106.352 37.6083C107.879 35.67 104.954 33.3511 103.41 35.2842V35.2842Z" fill="#1D1D1B"/>
</svg>

<svg width="120" height="120" fill="none" xmlns="http://www.w3.org/2000/svg"><path d="M113.135 25.858c-11.047-3.326-12.428-15.396-12.496-20.595-.017-1.327-1.125-2.41-2.452-2.41H21.813c-1.327 0-2.435 1.083-2.452 2.41-.068 5.2-1.449 17.27-12.496 20.595a2.442 2.442 0 00-1.742 2.439c.415 9.82 4.813 53.852 49.739 87.139a8.614 8.614 0 0010.276 0c44.926-33.287 49.324-77.32 49.739-87.14a2.443 2.443 0 00-1.742-2.438z" fill="#5FCDFF"/><path d="M63.516 116.385a8.62 8.62 0 01-8.654-.946C9.938 82.148 5.536 38.119 5.123 28.298a2.45 2.45 0 011.744-2.442C17.911 22.532 19.294 10.462 19.36 5.264a2.465 2.465 0 012.452-2.41h7.031c-1.326 0-2.433 1.083-2.451 2.41-.066 5.198-1.449 17.268-12.493 20.592a2.45 2.45 0 00-1.743 2.442c.412 9.82 4.814 53.85 49.739 87.141a8.333 8.333 0 001.622.946z" fill="#73D7F9"/><path d="M114.877 28.298c-.413 9.82-4.815 53.85-49.74 87.141a8.62 8.62 0 01-8.653.946 8.329 8.329 0 001.622-.946c44.925-33.291 49.327-77.32 49.739-87.141a2.45 2.45 0 00-1.743-2.442C95.058 22.532 93.675 10.462 93.609 5.264c-.018-1.327-1.125-2.41-2.451-2.41h7.031a2.464 2.464 0 012.452 2.41c.065 5.198 1.448 17.268 12.492 20.592a2.451 2.451 0 011.744 2.442z" fill="#30B6FF"/><path d="M57.057 58.272a4.047 4.047 0 01-3.14-1.494l-7.534-9.265a4.047 4.047 0 116.28-5.107l4.815 5.922 13.066-12.065a4.047 4.047 0 115.491 5.947L59.803 57.198a4.05 4.05 0 01-2.746 1.073z" fill="#FFEFEE"/><path d="M86.72 15.515h3.52a1.875 1.875 0 000-3.75h-3.52a1.875 1.875 0 000 3.75zm-24.375 0H79.69a1.875 1.875 0 000-3.75H62.345a1.875 1.875 0 000 3.75zm11.18 17.805a5.855 5.855 0 00-4.253 1.566l-11.598 10.71-3.555-4.373a5.93 5.93 0 00-8.331-.858 5.929 5.929 0 00-.86 8.33l7.535 9.267c2.128 2.618 6.072 2.96 8.612.614l16.233-14.989c3.837-3.544 1.51-10.057-3.783-10.268zm-14.994 22.5a2.173 2.173 0 01-3.16-.225c-8.142-10.014-8.134-9.643-8.009-10.86.2-1.93 2.636-2.634 3.847-1.147l4.814 5.922a1.876 1.876 0 002.727.194L71.816 37.64c1.428-1.32 3.72-.23 3.643 1.682-.048 1.244.643.272-16.928 16.498z" fill="#1D1D1B"/><path d="M113.676 24.062c-9.891-2.977-11.101-14.155-11.162-18.823-.031-2.35-1.972-4.26-4.327-4.26H21.813c-2.355 0-4.296 1.91-4.327 4.26-.061 4.668-1.271 15.847-11.162 18.823a4.316 4.316 0 00-3.074 4.314c.215 5.108 1.458 18.785 8.317 35.406 8.643 20.942 22.834 38.828 42.178 53.161A10.486 10.486 0 0060 119.022a10.49 10.49 0 006.254-2.079c19.344-14.333 33.535-32.219 42.178-53.161 6.859-16.621 8.102-30.297 8.317-35.406a4.314 4.314 0 00-3.073-4.314zM64.022 113.93a6.72 6.72 0 01-8.044 0C11.408 80.907 7.356 36.736 6.997 28.217a.569.569 0 01.409-.564c12.266-3.692 13.758-16.87 13.83-22.365a.589.589 0 01.577-.56h76.374c.303 0 .574.262.577.56.072 5.494 1.564 18.673 13.83 22.365.252.076.42.308.409.564-.359 8.52-4.412 52.69-48.98 85.713z" fill="#1D1D1B"/><path d="M43.393 78.596c4.222-2.582 4.111-8.414 4.103-8.683-.07-2.457-3.799-2.378-3.748.1 0 .043.051 4.025-2.435 5.453a111.336 111.336 0 01-3.239-5.41c3.916-2.316 4.401-7.597 4.422-7.852.204-2.462-3.513-2.773-3.736-.316-.004.04-.34 3.442-2.48 4.853a131.048 131.048 0 01-3.053-6.263c4.015-2.517 4.648-7.994 4.676-8.252a1.875 1.875 0 10-3.73-.396c-.004.04-.427 3.434-2.485 5.14a147.642 147.642 0 01-2.213-5.54c3.777-3.074 4.814-8.456 4.86-8.701a1.876 1.876 0 00-3.688-.682c-.007.04-.652 3.251-2.567 5.518a151.387 151.387 0 01-2.218-6.951c4.107-2.913 5.452-8.018 5.51-8.242a1.875 1.875 0 00-3.635-.928c-.009.036-.833 3.033-2.974 5.193-.647-2.492-.945-3.965-.958-4.03a1.874 1.874 0 10-3.68.725c.053.263.36 1.788.985 4.236-2.625-.81-4.559-2.943-4.587-2.974a1.875 1.875 0 00-2.81 2.483c.157.178 3.652 4.08 8.49 4.507a150.818 150.818 0 002.389 7.513c-2.636-.365-5.058-3.183-5.817-4.336a1.875 1.875 0 00-3.138 2.052c3.173 4.875 8.294 6.648 10.287 5.97a148.387 148.387 0 002.242 5.616c-2.57.296-5.305-2.11-6.192-3.13a1.875 1.875 0 00-2.84 2.45c2.453 2.851 6.899 5.331 10.571 4.183.943 2.07 1.965 4.181 3.075 6.313-3.064.411-6.26-1.882-6.296-1.908a1.875 1.875 0 00-2.227 3.017c2.159 1.599 6.456 3.493 10.374 2.317a115.88 115.88 0 003.24 5.431c-2.19.317-4.675-.258-5.726-.622a1.875 1.875 0 00-1.239 3.54c2.348.825 6.131 1.365 9.163.41a97.137 97.137 0 004.974 6.62c.37.45.908.684 1.449.684 1.566 0 2.458-1.837 1.448-3.066a92.207 92.207 0 01-4.547-6.042zm60.017-43.312c-.023.029-1.839 2.262-4.416 3.217.489-2.476.712-4.014.75-4.28a1.875 1.875 0 00-3.714-.522c-.009.066-.226 1.554-.736 4.078-2.268-2.045-3.245-4.994-3.256-5.03a1.874 1.874 0 00-3.575 1.131c.069.22 1.692 5.245 5.952 7.929a150.47 150.47 0 01-1.836 7.064c-2.047-2.163-2.854-5.337-2.864-5.376a1.874 1.874 0 00-3.644.887c.059.242 1.389 5.56 5.329 8.423a148.423 148.423 0 01-1.907 5.654c-2.151-1.587-2.752-4.94-2.763-5.004a1.876 1.876 0 00-3.701.605c.041.257.973 5.69 5.12 7.984a131.505 131.505 0 01-2.706 6.42c-2.2-1.284-2.73-4.631-2.741-4.708a1.876 1.876 0 00-3.714.52c.035.253.81 5.5 4.846 7.597a111.55 111.55 0 01-2.938 5.58c-2.551-1.286-2.727-5.242-2.73-5.311-.074-2.489-3.812-2.36-3.748.105.007.268.217 6.097 4.573 8.445a91.337 91.337 0 01-4.21 6.28 1.875 1.875 0 003.023 2.219 97.344 97.344 0 004.6-6.875c2.962.76 6.718.08 9.13-.919a1.873 1.873 0 001.015-2.445 1.877 1.877 0 00-2.446-1.02c-1.03.42-3.479 1.13-5.682.934a116.422 116.422 0 002.936-5.597c3.522.851 7.64-.731 10.233-2.885a1.874 1.874 0 10-2.394-2.887c-.034.028-3.11 2.483-6.177 2.246a134.04 134.04 0 002.724-6.472c3.71.946 8.033-1.768 10.325-4.755a1.874 1.874 0 10-2.971-2.286c-.03.039-2.914 3.658-6.008 3.459a148.5 148.5 0 001.93-5.73c2.04.57 7.035-1.476 9.946-6.524 1.232-2.14-2-4.016-3.247-1.877-.695 1.193-2.954 4.147-5.57 4.65a149.583 149.583 0 001.973-7.631c4.808-.692 8.084-4.781 8.231-4.969 1.527-1.938-1.398-4.257-2.942-2.324z" fill="#1D1D1B"/></svg>
